north-arrow.svg

<?xml version="1.0" encoding="UTF-8" standalone="no"?>
<!-- Created with Inkscape (http://www.inkscape.org/) -->
<svg xmlns:inkscape="http://www.inkscape.org/namespaces/inkscape" xmlns:rdf="http://www.w3.org/1999/02/22-rdf-syntax-ns#" xmlns="http://www.w3.org/2000/svg" xmlns:cc="http://creativecommons.org/ns#" xmlns:dc="http://purl.org/dc/elements/1.1/" xmlns:sodipodi="http://sodipodi.sourceforge.net/DTD/sodipodi-0.dtd" id="svg2" sodipodi:docname="_svgclean2.svg" viewBox="0 0 642.41 929.51" sodipodi:version="0.32" version="1.1" inkscape:output_extension="org.inkscape.output.svg.inkscape" inkscape:version="0.48.3.1 r9886">
  <sodipodi:namedview id="base" bordercolor="#666666" inkscape:pageshadow="2" inkscape:window-y="0" pagecolor="#ffffff" inkscape:window-height="645" inkscape:window-maximized="0" inkscape:zoom="0.19231016" inkscape:window-x="0" showgrid="false" borderopacity="1.0" inkscape:current-layer="layer1" inkscape:cx="277.35998" inkscape:cy="933.8101" inkscape:window-width="674" inkscape:pageopacity="0.0" inkscape:document-units="px"/>
  <g id="layer1" inkscape:label="Ebene 1" inkscape:groupmode="layer" transform="translate(-51.471 -91.49)">
    <path id="path2452" style="fill:#000000" inkscape:connector-curvature="0" d="m373.75 91.496c-0.95-1.132-74.87 153.23-164.19 343.02-160.8 341.68-162.27 345.16-156.49 350.27 3.203 2.83 6.954 4.79 8.319 4.34 1.365-0.46 71.171-73.88 155.14-163.1 83.97-89.22 153.66-162.83 154.87-163.56 1.2-0.72 71.42 72.34 156.04 162.29s155.21 163.82 156.95 164.19 5.57-1.19 8.5-3.44c5.04-3.86-3.75-23.46-156.04-348-88.77-189.18-162.15-344.88-163.1-346.01zm-2.72 42.694c1.4-1.53 2.45 63.91 2.45 148.36v151.07l-142.3 151.34c-124.61 132.46-143.8 152.86-145.1 153.51 0.143-0.35 1.009-1.57 1.361-2.26 0.81-1.59 64.409-137.07 141.3-301.05 76.89-163.99 140.93-299.45 142.29-300.97zm-99.77 642v244.81h32.11v-204.82l108.55 204.82h44.6v-244.81h-32.11v204.8l-108.56-204.8h-44.59z"/>
  </g>
  <metadata id="metadata6">
    <rdf:RDF>
      <cc:Work>
        <dc:format>image/svg+xml</dc:format>
        <dc:type rdf:resource="http://purl.org/dc/dcmitype/StillImage"/>
        <cc:license rdf:resource="http://creativecommons.org/licenses/publicdomain/"/>
        <dc:publisher>
          <cc:Agent rdf:about="http://openclipart.org/">
            <dc:title>Openclipart</dc:title>
          </cc:Agent>
        </dc:publisher>
      </cc:Work>
      <cc:License rdf:about="http://creativecommons.org/licenses/publicdomain/">
        <cc:permits rdf:resource="http://creativecommons.org/ns#Reproduction"/>
        <cc:permits rdf:resource="http://creativecommons.org/ns#Distribution"/>
        <cc:permits rdf:resource="http://creativecommons.org/ns#DerivativeWorks"/>
      </cc:License>
    </rdf:RDF>
  </metadata>
<script xmlns=""/></svg>

<?xml version="1.0" encoding="UTF-8" standalone="no"?>
<svg:svg
   xmlns:dc="http://purl.org/dc/elements/1.1/"
   xmlns:cc="http://creativecommons.org/ns#"
   xmlns:rdf="http://www.w3.org/1999/02/22-rdf-syntax-ns#"
   xmlns:svg="http://www.w3.org/2000/svg"
   xmlns:sodipodi="http://sodipodi.sourceforge.net/DTD/sodipodi-0.dtd"
   xmlns:inkscape="http://www.inkscape.org/namespaces/inkscape"
   id="svg2"
   sodipodi:docname="north-arrow.svg"
   viewBox="0 0 742.41166 1029.5101"
   sodipodi:version="0.32"
   version="1.1"
   inkscape:output_extension="org.inkscape.output.svg.inkscape"
   inkscape:version="1.0.2 (e86c870879, 2021-01-15)"
   width="742.41162"
   height="1029.5101">
  <svg:defs
     id="defs7" />
  <sodipodi:namedview
     id="base"
     bordercolor="#666666"
     inkscape:pageshadow="2"
     inkscape:window-y="0"
     pagecolor="#ffffff"
     inkscape:window-height="1411"
     inkscape:window-maximized="1"
     inkscape:zoom="0.19231016"
     inkscape:window-x="0"
     showgrid="false"
     borderopacity="1.0"
     inkscape:current-layer="layer1"
     inkscape:cx="327.36017"
     inkscape:cy="983.81028"
     inkscape:window-width="3440"
     inkscape:pageopacity="0.0"
     inkscape:document-units="px"
     inkscape:document-rotation="0"
     lock-margins="true"
     fit-margin-top="50"
     fit-margin-left="50"
     fit-margin-right="50"
     fit-margin-bottom="50" />
  <svg:g
     id="layer1"
     inkscape:label="Ebene 1"
     inkscape:groupmode="layer"
     transform="translate(-1.4708119,-41.489813)">
    <svg:path
       id="path2452"
       style="fill:#000000"
       inkscape:connector-curvature="0"
       d="m 373.75,91.496 c -0.95,-1.132 -74.87,153.23 -164.19,343.02 -160.8,341.68 -162.27,345.16 -156.49,350.27 3.203,2.83 6.954,4.79 8.319,4.34 1.365,-0.46 71.171,-73.88 155.14,-163.1 83.97,-89.22 153.66,-162.83 154.87,-163.56 1.2,-0.72 71.42,72.34 156.04,162.29 84.62,89.95 155.21,163.82 156.95,164.19 1.74,0.37 5.57,-1.19 8.5,-3.44 5.04,-3.86 -3.75,-23.46 -156.04,-348 -88.77,-189.18 -162.15,-344.88 -163.1,-346.01 z m -2.72,42.694 c 1.4,-1.53 2.45,63.91 2.45,148.36 V 433.62 L 231.18,584.96 C 106.57,717.42 87.38,737.82 86.08,738.47 c 0.143,-0.35 1.009,-1.57 1.361,-2.26 0.81,-1.59 64.409,-137.07 141.3,-301.05 76.89,-163.99 140.93,-299.45 142.29,-300.97 z m -99.77,642 V 1021 h 32.11 V 816.18 L 411.92,1021 h 44.6 V 776.19 h -32.11 v 204.8 L 315.85,776.19 Z" />
  </svg:g>
  <svg:metadata
     id="metadata6">
    <rdf:RDF>
      <cc:Work>
        <dc:format>image/svg+xml</dc:format>
        <dc:type
           rdf:resource="http://purl.org/dc/dcmitype/StillImage" />
        <cc:license
           rdf:resource="http://creativecommons.org/publicdomain/zero/1.0/" />
        <dc:publisher>
          <cc:Agent
             rdf:about="http://openclipart.org/">
            <dc:title>Openclipart</dc:title>
          </cc:Agent>
        </dc:publisher>
        <dc:title></dc:title>
      </cc:Work>
      <cc:License
         rdf:about="http://creativecommons.org/publicdomain/zero/1.0/">
        <cc:permits
           rdf:resource="http://creativecommons.org/ns#Reproduction" />
        <cc:permits
           rdf:resource="http://creativecommons.org/ns#Distribution" />
        <cc:permits
           rdf:resource="http://creativecommons.org/ns#DerivativeWorks" />
      </cc:License>
    </rdf:RDF>
  </svg:metadata>
  <script />
</svg:svg>
